src/epub/images/titlepage.svg

<?xml version="1.0" encoding="utf-8"?>
<svg xmlns="http://www.w3.org/2000/svg" xmlns:svg="http://www.w3.org/2000/svg" version="1.1" viewBox="0 0 1400 440">
	<title>The titlepage for the Standard Ebooks edition of The Wood Beyond the World, by William Morris</title>
	<g>
		<path d="m 416.25292,68.245613 18.33918,0 0,61.754387 17.59064,0 0,-61.754387 18.33919,0 0,-15.438597 -54.26901,0 0,15.438597 z"/>
		<path d="m 499.44736,99.029239 24.88889,0 0,30.970761 17.59065,0 0,-77.192984 -17.59065,0 0,30.783626 -24.88889,0 0,-30.783626 -17.59064,0 0,77.192984 17.59064,0 0,-30.970761 z"/>
		<path d="m 602.2924,52.807016 -44.16374,0 0,77.192984 44.16374,0 0,-15.4386 -26.5731,0 0,-15.532161 25.45029,0 0,-15.438597 -25.45029,0 0,-15.345029 26.5731,0 0,-15.438597 z"/>
		<path d="m 699.1769,130 19.46199,0 21.9883,-77.192984 -19.46198,0 -13.19299,52.959064 -0.46783,0 -14.03509,-52.959064 -13.28655,0 -14.03509,52.959064 -0.46784,0 -13.19298,-52.959064 -19.55555,0 L 654.91959,130 674.47515,130 686.82602,86.678362 699.1769,130 Z"/>
		<path d="m 743.46054,91.356724 c 0,22.549706 16.09356,40.046786 38.92397,40.046786 22.17544,0 38.83041,-17.49708 38.83041,-40.046786 0,-22.549708 -17.40351,-39.953217 -38.83041,-39.953217 -21.23976,0 -38.92397,17.403509 -38.92397,39.953217 z m 18.99415,0 c 0,-11.508772 6.36257,-23.017544 19.92982,-23.017544 13.66082,0 19.83626,11.508772 19.83626,23.017544 0,11.508776 -5.80117,23.017546 -19.83626,23.017546 -14.40935,0 -19.92982,-11.50877 -19.92982,-23.017546 z"/>
		<path d="m 830.51461,91.356724 c 0,22.549706 16.09357,40.046786 38.92398,40.046786 22.17544,0 38.83041,-17.49708 38.83041,-40.046786 0,-22.549708 -17.40351,-39.953217 -38.83041,-39.953217 -21.23977,0 -38.92398,17.403509 -38.92398,39.953217 z m 18.99416,0 c 0,-11.508772 6.36257,-23.017544 19.92982,-23.017544 13.66082,0 19.83626,11.508772 19.83626,23.017544 0,11.508776 -5.80117,23.017546 -19.83626,23.017546 -14.40936,0 -19.92982,-11.50877 -19.92982,-23.017546 z"/>
		<path d="m 921.03071,52.807016 0,77.192984 22.36257,0 c 21.23977,0 38.92398,-16.09357 38.92398,-38.643276 0,-22.45614 -17.77778,-38.549708 -38.92398,-38.549708 l -22.36257,0 z m 17.59064,61.473684 0,-45.754385 2.71345,0 c 13.09942,0 21.98831,10.011696 21.98831,22.923977 -0.0936,12.912278 -8.98246,22.830408 -21.98831,22.830408 l -2.71345,0 z"/>
	</g>
	<g>
		<path d="m 164.73318,152.80702 0,77.19298 29.28655,0 c 16,0 25.26316,-8.79532 25.26316,-21.52047 0,-12.44444 -6.83041,-17.77778 -16.46784,-19.46199 6.54971,-3.36842 9.63743,-9.45029 9.63743,-16.5614 0,-14.69006 -10.47953,-19.64912 -23.76608,-19.64912 l -23.95322,0 z m 17.59064,30.22222 0,-16.65497 1.40351,0 c 7.67252,0 11.69591,2.33918 11.69591,7.85965 0,6.45614 -4.11696,8.79532 -11.69591,8.79532 l -1.40351,0 z m 0,33.40351 0,-18.24562 5.52047,0 c 8.32749,0 12.91228,2.52632 12.91228,9.63743 0,6.08187 -4.58479,8.60819 -12.91228,8.60819 l -5.52047,0 z"/>
		<path d="m 276.21417,152.80702 -44.16374,0 0,77.19298 44.16374,0 0,-15.4386 -26.57309,0 0,-15.53216 25.45029,0 0,-15.4386 -25.45029,0 0,-15.34503 26.57309,0 0,-15.43859 z"/>
		<path d="m 282.90569,152.80702 28.44445,42.5731 0,34.61988 17.59064,0 0,-34.61988 28.44445,-42.5731 -21.1462,0 -16.09357,24.70175 -16.09357,-24.70175 -21.1462,0 z"/>
		<path d="m 361.76097,191.35672 c 0,22.54971 16.09356,40.04679 38.92397,40.04679 22.17544,0 38.83041,-17.49708 38.83041,-40.04679 0,-22.5497 -17.40351,-39.95321 -38.83041,-39.95321 -21.23976,0 -38.92397,17.40351 -38.92397,39.95321 z m 18.99415,0 c 0,-11.50877 6.36257,-23.01754 19.92982,-23.01754 13.66082,0 19.83626,11.50877 19.83626,23.01754 0,11.50878 -5.80117,23.01755 -19.83626,23.01755 -14.40935,0 -19.92982,-11.50877 -19.92982,-23.01755 z"/>
		<path d="m 469.86768,182.09357 0.18713,0 30.69006,47.90643 17.59064,0 0,-77.19298 -17.59064,0 0,47.90643 -0.18714,0 -30.69005,-47.90643 -17.59065,0 0,77.19298 17.59065,0 0,-47.90643 z"/>
		<path d="m 534.57967,152.80702 0,77.19298 22.36258,0 c 21.23976,0 38.92398,-16.09357 38.92398,-38.64328 0,-22.45614 -17.77778,-38.5497 -38.92398,-38.5497 l -22.36258,0 z m 17.59065,61.47368 0,-45.75439 2.71345,0 c 13.09941,0 21.9883,10.0117 21.9883,22.92398 -0.0936,12.91228 -8.98245,22.83041 -21.9883,22.83041 l -2.71345,0 z"/>
		<path d="m 629.80921,168.24561 18.33918,0 0,61.75439 17.59064,0 0,-61.75439 18.33919,0 0,-15.43859 -54.26901,0 0,15.43859 z"/>
		<path d="m 713.00363,199.02924 24.88889,0 0,30.97076 17.59064,0 0,-77.19298 -17.59064,0 0,30.78362 -24.88889,0 0,-30.78362 -17.59064,0 0,77.19298 17.59064,0 0,-30.97076 z"/>
		<path d="m 815.8487,152.80702 -44.16374,0 0,77.19298 44.16374,0 0,-15.4386 -26.5731,0 0,-15.53216 25.4503,0 0,-15.4386 -25.4503,0 0,-15.34503 26.5731,0 0,-15.43859 z"/>
		<path d="m 912.73322,230 19.46199,0 21.98831,-77.19298 -19.46199,0 -13.19299,52.95906 -0.46783,0 -14.03509,-52.95906 -13.28655,0 -14.03509,52.95906 -0.46783,0 -13.19299,-52.95906 -19.55555,0 21.9883,77.19298 19.55556,0 12.35087,-43.32164 L 912.73322,230 Z"/>
		<path d="m 957.0168,191.35672 c 0,22.54971 16.09356,40.04679 38.92397,40.04679 22.17543,0 38.83043,-17.49708 38.83043,-40.04679 0,-22.5497 -17.4035,-39.95321 -38.83043,-39.95321 -21.23976,0 -38.92397,17.40351 -38.92397,39.95321 z m 18.99415,0 c 0,-11.50877 6.36257,-23.01754 19.92982,-23.01754 13.66083,0 19.83623,11.50877 19.83623,23.01754 0,11.50878 -5.8011,23.01755 -19.83623,23.01755 -14.40935,0 -19.92982,-11.50877 -19.92982,-23.01755 z"/>
		<path d="m 1047.5329,152.80702 0,77.19298 17.5907,0 0,-30.50292 23.5789,30.50292 22.3626,0 -26.5731,-31.90643 c 9.4503,-2.99416 15.8129,-10.76024 15.8129,-22.36258 0,-15.15789 -10.8538,-22.92397 -25.1696,-22.92397 l -27.6024,0 z m 17.5907,34.24561 0,-20.21053 2.0584,0 c 6.6433,0 14.5965,0.46784 14.5965,10.10527 0,9.63742 -7.9532,10.10526 -14.5965,10.10526 l -2.0584,0 z"/>
		<path d="m 1137.1923,152.80702 -17.5907,0 0,77.19298 44.1638,0 0,-15.4386 -26.5731,0 0,-61.75438 z"/>
		<path d="m 1177.416,152.80702 0,77.19298 22.3626,0 c 21.2397,0 38.9239,-16.09357 38.9239,-38.64328 0,-22.45614 -17.7777,-38.5497 -38.9239,-38.5497 l -22.3626,0 z m 17.5906,61.47368 0,-45.75439 2.7135,0 c 13.0994,0 21.9883,10.0117 21.9883,22.92398 -0.094,12.91228 -8.9825,22.83041 -21.9883,22.83041 l -2.7135,0 z"/>
	</g>
	<g>
		<path d="m 397.32676,390 14.59649,0 16.49123,-57.89474 -14.5965,0 -9.89473,39.7193 -0.35088,0 -10.52631,-39.7193 -9.96492,0 -10.52631,39.7193 -0.35088,0 -9.89474,-39.7193 -14.66666,0 L 364.13377,390 378.80044,390 388.0636,357.50877 397.32676,390 Z"/>
		<path d="m 449.77194,332.10526 -13.19299,0 0,57.89474 13.19299,0 0,-57.89474 z"/>
		<path d="m 476.42764,332.10526 -13.19299,0 0,57.89474 33.12281,0 0,-11.57895 -19.92982,0 0,-46.31579 z"/>
		<path d="m 521.03838,332.10526 -13.19298,0 0,57.89474 33.12281,0 0,-11.57895 -19.92983,0 0,-46.31579 z"/>
		<path d="m 565.64913,332.10526 -13.19298,0 0,57.89474 13.19298,0 0,-57.89474 z"/>
		<path d="m 608.51536,332.10526 -12.21053,0 L 572.93641,390 l 14.17544,0 4.2807,-11.57895 22.03509,0 4.2807,11.57895 14.17544,0 -23.36842,-57.89474 z m 0.42105,34.73685 -13.05263,0 6.45614,-16.84211 0.14035,0 6.45614,16.84211 z"/>
		<path d="m 686.93311,390 13.19298,0 -5.19298,-57.89474 -14.03509,0 -12.8421,33.40351 -12.84211,-33.40351 -14.03509,0 -5.19298,57.89474 13.19298,0 2.73685,-34.31579 0.35087,0 11.85965,33.96491 7.85965,0 11.85965,-33.96491 0.35088,0 L 686.93311,390 Z"/>
		<path d="m 782.45941,390 13.19299,0 -5.19299,-57.89474 -14.03508,0 -12.84211,33.40351 -12.8421,-33.40351 -14.03509,0 -5.19298,57.89474 13.19298,0 2.73684,-34.31579 0.35088,0 11.85965,33.96491 7.85965,0 11.85965,-33.96491 0.35087,0 L 782.45941,390 Z"/>
		<path d="m 803.34101,361.01754 c 0,16.91228 12.07018,30.03509 29.19299,30.03509 16.63157,0 29.1228,-13.12281 29.1228,-30.03509 0,-16.91228 -13.05263,-29.96491 -29.1228,-29.96491 -15.92983,0 -29.19299,13.05263 -29.19299,29.96491 z m 14.24562,0 c 0,-8.63157 4.77193,-17.26315 14.94737,-17.26315 10.24561,0 14.87719,8.63158 14.87719,17.26315 0,8.63158 -4.35088,17.26316 -14.87719,17.26316 -10.80702,0 -14.94737,-8.63158 -14.94737,-17.26316 z"/>
		<path d="m 872.47809,332.10526 0,57.89474 13.19298,0 0,-22.87719 17.68422,22.87719 16.77192,0 -19.92982,-23.92982 c 7.08772,-2.24562 11.85965,-8.07018 11.85965,-16.77193 0,-11.36842 -8.14035,-17.19299 -18.87719,-17.19299 l -20.70176,0 z m 13.19298,25.68421 0,-15.15789 1.54386,0 c 4.98246,0 10.94737,0.35088 10.94737,7.57895 0,7.22807 -5.96491,7.57894 -10.94737,7.57894 l -1.54386,0 z"/>
		<path d="m 927.77961,332.10526 0,57.89474 13.19298,0 0,-22.87719 L 958.6568,390 l 16.77193,0 -19.92983,-23.92982 c 7.08772,-2.24562 11.85965,-8.07018 11.85965,-16.77193 0,-11.36842 -8.14035,-17.19299 -18.87719,-17.19299 l -20.70175,0 z m 13.19298,25.68421 0,-15.15789 1.54386,0 c 4.98245,0 10.94737,0.35088 10.94737,7.57895 0,7.22807 -5.96492,7.57894 -10.94737,7.57894 l -1.54386,0 z"/>
		<path d="m 996.2741,332.10526 -13.19298,0 0,57.89474 13.19298,0 0,-57.89474 z"/>
		<path d="m 1029.6995,331.05263 c -9.3333,0 -18.8771,6.8772 -18.8771,17.68421 0,6.03509 4.0701,11.4386 11.0175,14.8772 6.8772,3.43859 13.0526,5.33333 13.0526,9.54385 0,5.40351 -5.4737,5.68422 -8.3508,5.68422 -6.4562,0 -14.1755,-6.52632 -14.1755,-6.52632 l -6.5965,11.08772 c 0,0 8.2106,7.64912 21.7544,7.64912 11.2983,0 21.8246,-4.8421 21.8246,-18.66666 0,-7.57895 -7.0877,-13.05264 -13.5439,-15.78948 -6.5965,-2.80702 -12.0702,-5.12281 -12.0702,-8.35088 0,-3.15789 2.386,-5.19298 6.8772,-5.19298 5.9649,0 11.7193,4 11.7193,4 l 5.3334,-10.52631 c 0,0 -7.4386,-5.47369 -17.965,-5.47369 z"/>
	</g>
</svg>

<?xml version="1.0" encoding="utf-8"?>
<svg xmlns="http://www.w3.org/2000/svg" xmlns:svg="http://www.w3.org/2000/svg" version="1.1" viewBox="0 0 1400 440">
	<title>The titlepage for the Standard Ebooks edition of The Wood Beyond the World, by William Morris</title>
	<g aria-label="THE WOOD">
		<path d="M 416.25292,68.245613 H 434.5921 V 130 h 17.59064 V 68.245613 h 18.33919 V 52.807016 h -54.26901 z"/>
		<path d="m 499.44736,99.029239 h 24.88889 V 130 H 541.9269 V 52.807016 H 524.33625 V 83.590642 H 499.44736 V 52.807016 H 481.85672 V 130 h 17.59064 z"/>
		<path d="M 602.2924,52.807016 H 558.12866 V 130 H 602.2924 V 114.5614 H 575.7193 V 99.029239 h 25.45029 V 83.590642 H 575.7193 V 68.245613 h 26.5731 z"/>
		<path d="m 699.1769,130 h 19.46199 l 21.9883,-77.192984 h -19.46198 l -13.19299,52.959064 h -0.46783 L 693.4693,52.807016 h -13.28655 l -14.03509,52.959064 h -0.46784 L 652.48684,52.807016 H 632.93129 L 654.91959,130 h 19.55556 l 12.35087,-43.321638 z"/>
		<path d="m 743.46054,91.356724 c 0,22.549706 16.09356,40.046786 38.92397,40.046786 22.17544,0 38.83041,-17.49708 38.83041,-40.046786 0,-22.549708 -17.40351,-39.953217 -38.83041,-39.953217 -21.23976,0 -38.92397,17.403509 -38.92397,39.953217 z m 18.99415,0 c 0,-11.508772 6.36257,-23.017544 19.92982,-23.017544 13.66082,0 19.83626,11.508772 19.83626,23.017544 0,11.508776 -5.80117,23.017546 -19.83626,23.017546 -14.40935,0 -19.92982,-11.50877 -19.92982,-23.017546 z"/>
		<path d="m 830.51461,91.356724 c 0,22.549706 16.09357,40.046786 38.92398,40.046786 22.17544,0 38.83041,-17.49708 38.83041,-40.046786 0,-22.549708 -17.40351,-39.953217 -38.83041,-39.953217 -21.23977,0 -38.92398,17.403509 -38.92398,39.953217 z m 18.99416,0 c 0,-11.508772 6.36257,-23.017544 19.92982,-23.017544 13.66082,0 19.83626,11.508772 19.83626,23.017544 0,11.508776 -5.80117,23.017546 -19.83626,23.017546 -14.40936,0 -19.92982,-11.50877 -19.92982,-23.017546 z"/>
		<path d="M 921.03071,52.807016 V 130 h 22.36257 c 21.23977,0 38.92398,-16.09357 38.92398,-38.643276 0,-22.45614 -17.77778,-38.549708 -38.92398,-38.549708 z M 938.62135,114.2807 V 68.526315 h 2.71345 c 13.09942,0 21.98831,10.011696 21.98831,22.923977 -0.0936,12.912278 -8.98246,22.830408 -21.98831,22.830408 z"/>
	</g>
	<g aria-label="BEYOND THE WORLD">
		<path d="M 164.73318,152.80702 V 230 h 29.28655 c 16,0 25.26316,-8.79532 25.26316,-21.52047 0,-12.44444 -6.83041,-17.77778 -16.46784,-19.46199 6.54971,-3.36842 9.63743,-9.45029 9.63743,-16.5614 0,-14.69006 -10.47953,-19.64912 -23.76608,-19.64912 z m 17.59064,30.22222 v -16.65497 h 1.40351 c 7.67252,0 11.69591,2.33918 11.69591,7.85965 0,6.45614 -4.11696,8.79532 -11.69591,8.79532 z m 0,33.40351 v -18.24562 h 5.52047 c 8.32749,0 12.91228,2.52632 12.91228,9.63743 0,6.08187 -4.58479,8.60819 -12.91228,8.60819 z"/>
		<path d="M 276.21417,152.80702 H 232.05043 V 230 h 44.16374 v -15.4386 h -26.57309 v -15.53216 h 25.45029 v -15.4386 h -25.45029 v -15.34503 h 26.57309 z"/>
		<path d="m 282.90569,152.80702 28.44445,42.5731 V 230 h 17.59064 v -34.61988 l 28.44445,-42.5731 h -21.1462 l -16.09357,24.70175 -16.09357,-24.70175 z"/>
		<path d="m 361.76097,191.35672 c 0,22.54971 16.09356,40.04679 38.92397,40.04679 22.17544,0 38.83041,-17.49708 38.83041,-40.04679 0,-22.5497 -17.40351,-39.95321 -38.83041,-39.95321 -21.23976,0 -38.92397,17.40351 -38.92397,39.95321 z m 18.99415,0 c 0,-11.50877 6.36257,-23.01754 19.92982,-23.01754 13.66082,0 19.83626,11.50877 19.83626,23.01754 0,11.50878 -5.80117,23.01755 -19.83626,23.01755 -14.40935,0 -19.92982,-11.50877 -19.92982,-23.01755 z"/>
		<path d="m 469.86768,182.09357 h 0.18713 L 500.74487,230 h 17.59064 v -77.19298 h -17.59064 v 47.90643 h -0.18714 L 469.86768,152.80702 H 452.27703 V 230 h 17.59065 z"/>
		<path d="M 534.57967,152.80702 V 230 h 22.36258 c 21.23976,0 38.92398,-16.09357 38.92398,-38.64328 0,-22.45614 -17.77778,-38.5497 -38.92398,-38.5497 z m 17.59065,61.47368 v -45.75439 h 2.71345 c 13.09941,0 21.9883,10.0117 21.9883,22.92398 -0.0936,12.91228 -8.98245,22.83041 -21.9883,22.83041 z"/>
		<path d="m 629.80921,168.24561 h 18.33918 V 230 h 17.59064 v -61.75439 h 18.33919 v -15.43859 h -54.26901 z"/>
		<path d="m 713.00363,199.02924 h 24.88889 V 230 h 17.59064 v -77.19298 h -17.59064 v 30.78362 H 713.00363 V 152.80702 H 695.41299 V 230 h 17.59064 z"/>
		<path d="M 815.8487,152.80702 H 771.68496 V 230 h 44.16374 v -15.4386 h -26.5731 v -15.53216 h 25.4503 v -15.4386 h -25.4503 v -15.34503 h 26.5731 z"/>
		<path d="m 912.73322,230 h 19.46199 l 21.98831,-77.19298 h -19.46199 l -13.19299,52.95906 h -0.46783 l -14.03509,-52.95906 h -13.28655 l -14.03509,52.95906 h -0.46783 L 866.04316,152.80702 H 846.48761 L 868.47591,230 h 19.55556 l 12.35087,-43.32164 z"/>
		<path d="m 957.0168,191.35672 c 0,22.54971 16.09356,40.04679 38.92397,40.04679 22.17543,0 38.83043,-17.49708 38.83043,-40.04679 0,-22.5497 -17.4035,-39.95321 -38.83043,-39.95321 -21.23976,0 -38.92397,17.40351 -38.92397,39.95321 z m 18.99415,0 c 0,-11.50877 6.36257,-23.01754 19.92982,-23.01754 13.66083,0 19.83623,11.50877 19.83623,23.01754 0,11.50878 -5.8011,23.01755 -19.83623,23.01755 -14.40935,0 -19.92982,-11.50877 -19.92982,-23.01755 z"/>
		<path d="M 1047.5329,152.80702 V 230 h 17.5907 V 199.49708 L 1088.7025,230 h 22.3626 l -26.5731,-31.90643 c 9.4503,-2.99416 15.8129,-10.76024 15.8129,-22.36258 0,-15.15789 -10.8538,-22.92397 -25.1696,-22.92397 z m 17.5907,34.24561 V 166.8421 h 2.0584 c 6.6433,0 14.5965,0.46784 14.5965,10.10527 0,9.63742 -7.9532,10.10526 -14.5965,10.10526 z"/>
		<path d="m 1137.1923,152.80702 h -17.5907 V 230 h 44.1638 v -15.4386 h -26.5731 z"/>
		<path d="M 1177.416,152.80702 V 230 h 22.3626 c 21.2397,0 38.9239,-16.09357 38.9239,-38.64328 0,-22.45614 -17.7777,-38.5497 -38.9239,-38.5497 z m 17.5906,61.47368 v -45.75439 h 2.7135 c 13.0994,0 21.9883,10.0117 21.9883,22.92398 -0.094,12.91228 -8.9825,22.83041 -21.9883,22.83041 z"/>
	</g>
	<g aria-label="WILLIAM MORRIS">
		<path d="m 397.32676,390 h 14.59649 l 16.49123,-57.89474 h -14.5965 l -9.89473,39.7193 h -0.35088 l -10.52631,-39.7193 h -9.96492 l -10.52631,39.7193 h -0.35088 l -9.89474,-39.7193 H 347.64255 L 364.13377,390 h 14.66667 l 9.26316,-32.49123 z"/>
		<path d="M 449.77194,332.10526 H 436.57895 V 390 h 13.19299 z"/>
		<path d="M 476.42764,332.10526 H 463.23465 V 390 h 33.12281 v -11.57895 h -19.92982 z"/>
		<path d="M 521.03838,332.10526 H 507.8454 V 390 h 33.12281 v -11.57895 h -19.92983 z"/>
		<path d="M 565.64913,332.10526 H 552.45615 V 390 h 13.19298 z"/>
		<path d="M 608.51536,332.10526 H 596.30483 L 572.93641,390 h 14.17544 l 4.2807,-11.57895 h 22.03509 L 617.70834,390 h 14.17544 z m 0.42105,34.73685 H 595.88378 L 602.33992,350 h 0.14035 z"/>
		<path d="m 686.93311,390 h 13.19298 l -5.19298,-57.89474 h -14.03509 l -12.8421,33.40351 -12.84211,-33.40351 H 641.17872 L 635.98574,390 h 13.19298 l 2.73685,-34.31579 h 0.35087 l 11.85965,33.96491 h 7.85965 l 11.85965,-33.96491 h 0.35088 z"/>
		<path d="m 782.45941,390 h 13.19299 l -5.19299,-57.89474 h -14.03508 l -12.84211,33.40351 -12.8421,-33.40351 H 736.70503 L 731.51205,390 h 13.19298 l 2.73684,-34.31579 h 0.35088 l 11.85965,33.96491 h 7.85965 l 11.85965,-33.96491 h 0.35087 z"/>
		<path d="m 803.34101,361.01754 c 0,16.91228 12.07018,30.03509 29.19299,30.03509 16.63157,0 29.1228,-13.12281 29.1228,-30.03509 0,-16.91228 -13.05263,-29.96491 -29.1228,-29.96491 -15.92983,0 -29.19299,13.05263 -29.19299,29.96491 z m 14.24562,0 c 0,-8.63157 4.77193,-17.26315 14.94737,-17.26315 10.24561,0 14.87719,8.63158 14.87719,17.26315 0,8.63158 -4.35088,17.26316 -14.87719,17.26316 -10.80702,0 -14.94737,-8.63158 -14.94737,-17.26316 z"/>
		<path d="M 872.47809,332.10526 V 390 h 13.19298 V 367.12281 L 903.35529,390 h 16.77192 l -19.92982,-23.92982 c 7.08772,-2.24562 11.85965,-8.07018 11.85965,-16.77193 0,-11.36842 -8.14035,-17.19299 -18.87719,-17.19299 z m 13.19298,25.68421 v -15.15789 h 1.54386 c 4.98246,0 10.94737,0.35088 10.94737,7.57895 0,7.22807 -5.96491,7.57894 -10.94737,7.57894 z"/>
		<path d="M 927.77961,332.10526 V 390 h 13.19298 V 367.12281 L 958.6568,390 h 16.77193 L 955.4989,366.07018 c 7.08772,-2.24562 11.85965,-8.07018 11.85965,-16.77193 0,-11.36842 -8.14035,-17.19299 -18.87719,-17.19299 z m 13.19298,25.68421 v -15.15789 h 1.54386 c 4.98245,0 10.94737,0.35088 10.94737,7.57895 0,7.22807 -5.96492,7.57894 -10.94737,7.57894 z"/>
		<path d="M 996.2741,332.10526 H 983.08112 V 390 h 13.19298 z"/>
		<path d="m 1029.6995,331.05263 c -9.3333,0 -18.8771,6.8772 -18.8771,17.68421 0,6.03509 4.0701,11.4386 11.0175,14.8772 6.8772,3.43859 13.0526,5.33333 13.0526,9.54385 0,5.40351 -5.4737,5.68422 -8.3508,5.68422 -6.4562,0 -14.1755,-6.52632 -14.1755,-6.52632 l -6.5965,11.08772 c 0,0 8.2106,7.64912 21.7544,7.64912 11.2983,0 21.8246,-4.8421 21.8246,-18.66666 0,-7.57895 -7.0877,-13.05264 -13.5439,-15.78948 -6.5965,-2.80702 -12.0702,-5.12281 -12.0702,-8.35088 0,-3.15789 2.386,-5.19298 6.8772,-5.19298 5.9649,0 11.7193,4 11.7193,4 l 5.3334,-10.52631 c 0,0 -7.4386,-5.47369 -17.965,-5.47369 z"/>
	</g>
</svg>
